X: 25333
T: Mantis And A Cherry Tree
R: hornpipe
M: 4/4
K: Amajor
A>B|:c>B c>e d>c d>f|e>a e>c A>E (3ABc|d>B E>d c>A E>A|B>A G>A B>d c>B|
c>B c>e d>c d>f|e>a e>c A>E (3ABc|d>B E>d c>A E>c|1 B>A A>G A>E A>B:|2 B>A A>G A>E A>c||
|:d>B G>f e>d c>B|c>A E>f e>c d>e|f>a f>d c>f (3edc|B>A G>F E>d c>B|
c>B c>e d>c d>f|e>a e>c A>E (3ABc|d>B E>d c>A E>c|1 B>A A>G A>E A>c:|2 B>A A>G A4||

